X:1
T:Welk een vriend is onze Jezus
T:Welk een vriend is onze Jezus
T:Bovenpartij
T:J. Scriver
T:DP
T:DP
T:DP
C:J. Scriver
Z:DP
%%score 1 { ( 2 3 6 ) | ( 4 5 ) }
L:1/8
M:4/4
K:F
V:1 treble nm="Voice"
V:2 treble nm="Piano"
V:3 treble 
V:6 treble 
V:4 bass 
V:5 bass 
V:1
 z8 | d3 d BdcB | A4 c4 | c3 d edcB | A4 z2 z2 | d3 d BdcB | AcAA cBAB | A6 z2 | z8 | f3 c cccc | %10
w: |Welk een Vriend is onz- ze|Je- zus,|o, hoe hoog is Hij ge-|zet?|Hij wil ons met God ver-|zoe- nen en ge- denkt ons in 'tge-|bed.||Wie kan zeg- gen wie kan|
 d4 c4 | c3 d edcB | A4 z2 z2 | d3 d BdcB | AcAA cBAB | A6 z2 |] %16
w: me- ten|hoe- veel heil ons wordt be-|reid?|Als Hij sme- kend tot de|Va- der op 'tver- bond der lief- de|pleit?|
V:2
 c3 c dcAF | F4 D4 | C3 F AFcA | G6 x2 | c3 c dcAF | F4 D4 | C3 F AGFE | F6 x2 | G3 ^F GABG | %9
w: 1.Welk een Vriend is on- ze|Je- zus,|o, hoe hoog is Hij ge-|zet?|Hij wil ons met God ver-|zoe- nen|en ge- denkt ons in 'tge-|bed.|Wie kan zeg- gen wie kan|
w: 2.Als de zon- de- mach- ten|drei- gen,|zwa- re strijd de ziel be-|nauwd,|laat ons dan tot Je- zus|vluch- ten,|Hij, de rots van ons be-|houd.|Dan be- wijst zich Je- zus'|
w: 3.Is soms "tra- nen- brood" de|spij- ze,|door- nen- vol ons le- vens-|pad,|moe- ten wij soms veel ont-|be- ren,|wat ons hart zo gaar- ne|had.|Zijn van vriend- den wij ver-|
 A4 c2 x2 | d3 d cABA | G6 x2 | c3 c dcAF | F4 D4 | C3 F AGFE | F6 x2 |] %16
w: me- ten|hoe- veel heil ons wordt be-|reid?|Als Hij sme- kend tot de|Va- der|op 'tver- bond der lief- de|pleit?|
w: trou- we,|hoe Zijn lief- de op ons|let,|als een mach- ti- ge Ver-|los- ser,|die ver- hoort een ziels- ge-|bed.|
w: la- ten|en de vij- and zoekt ons|leed,|o, dan is ons Je- zus|al- les,|Ko- ning, Pries- ter en Pro-|feet.|
V:3
 F3 F FFF_E | D4 B,4 | C3 D CDCF | E6 z2 | F3 F FFF_E | D4 B,4 | C3 D FDCC | C6 z2 | E3 ^D E z EE | %9
 F4 F2 z2 | F3 F FFGF | E6 z2 | F3 F FFF_E | D4 B,4 | C3 D FDCC | C6 z2 |] %16
V:4
 A,3 C B,CCC | B,4 F,4 | A,3 A, F,F,F,C | C6 x2 | A,3 C B,CCC | B,4 F,4 | A,3 A, CB,A,G, | A,6 x2 | %8
 C3 C CCCC | C4 A,2 x2 | B,3 B, CCCC | C6 x2 | A,3 C B,CCC | B,4 F,4 | A,3 A, CB,A,G, | x6 x2 |] %16
V:5
 F,3 A, B,A,F,A,, | B,,4 B,,4 | F,3 D, A,,B,,A,,F,, | C,6 z2 | F,3 A, B,A,F,A,, | B,,4 B,,4 | %6
 F,3 D, A,,B,,C,C, | F,6 z2 | C,3 C, B,,A,,G,,C, | F,4 F,2 z2 | B,3 B, A,F,E,F, | C,6 z2 | %12
 F,3 A, B,A,F,A,, | B,,4 B,,4 | F,3 D, A,,B,,C,C, | [F,,F,A,]6 z2 |] %16
V:6
 x8 | x8 | x8 | x8 | x8 | x8 | x8 | x8 | x5 =F x2 | x8 | x8 | x8 | x8 | x8 | x8 | x8 |] %16

